%
O0857( FACE OFF )
( HAAS 3 AXIS MILL - FASTECH EDUCATIONAL POST )
( DATE - FEB. 10 2025 )
( MCX FILE - T )
( NC FILE - FACE OFF.NC )
( T325 - 4"  FACE MILL - H325 )
G20
G0 G17 G40 G80 G90
G91 G28 Z0.
N1 T325 M6 ( 4"  FACE MILL - TOOL - 325 )
( OPERATION #1 )
G0 G90 G54 X-2.8 Y-1.5 S1069 M3
G43 H325 Z1.3 M8
Z.7
G1 Z.25 F1.1
X7.3
Z.2
X-2.8
Z.15
X7.3
Z.1
X-2.8
Z.05
X7.3
Z0.
X-2.8
G0 Z1. M9
M5
G91 G28 Z0.
G28 Y0.
G90
M30
%
