%
O01004
(Using high feed G1 F500. instead of G0.)
(T4 D=0.25 CR=0. - ZMIN=-0.265 - flat end mill)
(T19 D=0.25 CR=0. TAPER=45deg - ZMIN=-0.07 - chamfer mill)
N10 G90 G17
N15 G20
N20 G53 G0 Z0.

(2D Contour3)
N25 T4 M6
N30 S1400 M3
N35 G54
N40 M8
N45 G1 X2.775 Y-1.215 F500.
N50 G0 G43 Z0.6 H4
N55 T19
N60 G0 Z0.1
N65 G1 Z0.0894 F20.
N70 Z-0.025
N75 G19 G3 Y-1.19 Z-0.05 J0.025 K0.
N80 G1 Y-1.165
N85 G17 G3 X2.75 Y-1.14 I-0.025 J0.
N90 G1 X1.14
N95 Y-2.
N100 G3 X1.165 Y-2.025 I0.025 J0.
N105 G1 X1.19
N110 G18 G2 X1.215 Z-0.025 I0. K0.025
N115 G0 Z0.1
N120 G1 X2.775 Y-1.215 F500.
N125 Z0.0394 F20.
N130 Z-0.075
N135 G19 G3 Y-1.19 Z-0.1 J0.025 K0.
N140 G1 Y-1.165
N145 G17 G3 X2.75 Y-1.14 I-0.025 J0.
N150 G1 X1.14
N155 Y-2.
N160 G3 X1.165 Y-2.025 I0.025 J0.
N165 G1 X1.19
N170 G18 G2 X1.215 Z-0.075 I0. K0.025
N175 G0 Z0.1
N180 G1 X2.775 Y-1.215 F500.
N185 Z-0.0106 F20.
N190 Z-0.125
N195 G19 G3 Y-1.19 Z-0.15 J0.025 K0.
N200 G1 Y-1.165
N205 G17 G3 X2.75 Y-1.14 I-0.025 J0.
N210 G1 X1.14
N215 Y-2.
N220 G3 X1.165 Y-2.025 I0.025 J0.
N225 G1 X1.19
N230 G18 G2 X1.215 Z-0.125 I0. K0.025
N235 G0 Z0.1
N240 G1 X2.775 Y-1.215 F500.
N245 Z-0.0606 F20.
N250 Z-0.175
N255 G19 G3 Y-1.19 Z-0.2 J0.025 K0.
N260 G1 Y-1.165
N265 G17 G3 X2.75 Y-1.14 I-0.025 J0.
N270 G1 X1.14
N275 Y-2.
N280 G3 X1.165 Y-2.025 I0.025 J0.
N285 G1 X1.19
N290 G18 G2 X1.215 Z-0.175 I0. K0.025
N295 G0 Z0.1
N300 G1 X2.775 Y-1.215 F500.
N305 Z-0.1106 F20.
N310 Z-0.225
N315 G19 G3 Y-1.19 Z-0.25 J0.025 K0.
N320 G1 Y-1.165
N325 G17 G3 X2.75 Y-1.14 I-0.025 J0.
N330 G1 X1.14
N335 Y-2.
N340 G3 X1.165 Y-2.025 I0.025 J0.
N345 G1 X1.19
N350 G18 G2 X1.215 Z-0.225 I0. K0.025
N355 G0 Z0.6

(2D Contour2)
N360 S1200 M3
N365 G1 X0.105 Y0.215 F500.
N370 G0 Z0.6
N375 Z0.1
N380 G1 Z0.0394 F20.
N385 Z-0.24
N390 G19 G2 Y0.19 Z-0.265 J-0.025 K0.
N395 G1 Y0.165
N400 G17 G3 X0.13 Y0.14 I0.025 J0.
N405 G1 X2.75
N410 G2 X2.89 Y0. I0. J-0.14
N415 G1 Y-1.
N420 G2 X2.75 Y-1.14 I-0.14 J0.
N425 G1 X1.14
N430 Y-2.
N435 G2 X1. Y-2.14 I-0.14 J0.
N440 G1 X0.
N445 G2 X-0.14 Y-2. I0. J0.14
N450 G1 Y-0.13
N455 G2 X0.13 Y0.14 I0.27 J0.
N460 X0.1412 Y0.1325 I0. J-0.0122
N465 G3 X0.1525 Y0.125 I0.0113 J0.0047
N470 G1 X2.75
N475 G2 X2.875 Y0. I0. J-0.125
N480 G1 Y-1.
N485 G2 X2.75 Y-1.125 I-0.125 J0.
N490 G1 X1.13
N495 X1.1285 Y-1.1252
N500 X1.1271 Y-1.126
N505 X1.126 Y-1.1271
N510 X1.1252 Y-1.1285
N515 X1.125 Y-1.13
N520 Y-2.
N525 G2 X1. Y-2.125 I-0.125 J0.
N530 G1 X0.
N535 G2 X-0.125 Y-2. I0. J0.125
N540 G1 Y-0.13
N545 G2 X0.13 Y0.125 I0.255 J0.
N550 G1 X0.1525
N555 G3 X0.1775 Y0.15 I0. J0.025
N560 G1 Y0.175
N565 G19 G3 Y0.2 Z-0.24 J0. K0.025
N570 G0 Z0.6
N575 M9
N580 M5
N585 G53 G0 Z0.

(2D Chamfer1)
N590 M1
N595 T19 M6
N600 S2000 M3
N605 G54
N610 M8
N615 G17
N620 G1 X0.13 Y0.065 F500.
N625 G0 G43 Z0.6 H19
N630 T4
N635 G0 Z0.1
N640 G1 Z0.08 F20.
N645 Z-0.07
N650 Y0.04
N655 X2.75 F18.
N660 G2 X2.79 Y0. I0. J-0.04
N665 G1 Y-1.
N670 G2 X2.75 Y-1.04 I-0.04 J0.
N675 G1 X1.13
N680 G3 X1.04 Y-1.13 I0. J-0.09
N685 G1 Y-2.
N690 G2 X1. Y-2.04 I-0.04 J0.
N695 G1 X0.
N700 G2 X-0.04 Y-2. I0. J0.04
N705 G1 Y-0.13
N710 G2 X0.13 Y0.04 I0.17 J0.
N715 G1 X0.255
N720 Y0.065
N725 G0 Z0.6

N730 M5
N735 M9
N740 G53 G0 Z0.
N745 X1.375
N750 G53 G0 Y0.
N755 M30

%
