%
O0157( DB1-004 )
( HAAS 3 AXIS MILL - FASTECH EDUCATIONAL POST )
( DATE - JAN. 24 2025 )
( MCX FILE - DB1-004.EMCAM )
( NC FILE - DB1-004.NC )
( T2 - 3 CENTER DRILL - H2 )
( T10 - NO. 7 DRILL - H10 )
G20
G0 G17 G40 G80 G90
G91 G28 Z0.
N1 T2 M6 ( 3 CENTER DRILL - TOOL - 2 )
( OPERATION #1 )
G0 G90 G54 X.5 Y-1.5 S1200 M3
G43 H2 Z.5 M8 T10
G94
G99 G81 Z-.15 R.5 F12.
Y-1.
Y-.5
X1.5
X2.
X2.5
G80 M9
M5
G91 G0 G28 Z0.
M01
N2 T10 M6 ( NO. 7 DRILL - TOOL - 10 )
( OPERATION #2 )
G0 G17 G90 G54 X.5 Y-1.5 S1200 M3
G43 H10 Z.5 M8 T2
G94
G99 G81 Z-.3404 R.5 F12.
Y-1.
Y-.5
X1.5
X2.
X2.5
G80 M9
M5
G91 G0 G28 Z0.
G28 Y0.
G90
M30
%
