%
O0156( EL001 )
( HAAS 3 AXIS MILL - FASTECH EDUCATIONAL POST )
( DATE - JAN. 24 2025 )
( MCX FILE - EL2-001.EMCAM )
( NC FILE - EL001.NC )
( T14 - 1/4 DRILL - H14 )
( T10 - NO. 7 DRILL - H10 )
G20
G0 G17 G40 G80 G90
G91 G28 Z0.
N1 T14 M6 ( 1/4 DRILL - TOOL - 14 )
( OPERATION #2 )
G0 G90 G54 X1. Y-.5 S1200 M3
G43 H14 Z.5 M8 T10
G94
G99 G81 Z-.15 R.5 F10.
Y-1.5
X2.625
Y-.5
G80 M9
M5
G91 G0 G28 Z0.
M01
N2 T10 M6 ( NO. 7 DRILL - TOOL - 10 )
( OPERATION #3 )
G0 G17 G90 G54 X1. Y-.5 S1200 M3
G43 H10 Z.5 M8 T14
G94
G99 G81 Z-.2404 R.5 F10.
Y-1.5
X2.625
Y-.5
G80 M9
M5
G91 G0 G28 Z0.
G28 Y0.
G90
M30
%
